X:3641
T:Les ventres noirs
O:england
S:Trad 2, 16
M:3/8
L:1/16
K:C
dedcBd|c2cdef|g2fgfe|ded2c2|\
dedcBd|c2cdef|ggfgfe|1 d2g4:|2 d6||
|:defede|c2dedc|B2AGAB|c2d4|\
defede|c2dedc|B2AGAB|c6:|


